logo.svg

<svg width="962" height="96" viewBox="0 0 962 96" fill="none" xmlns="http://www.w3.org/2000/svg">
<g clip-path="url(#clip0_1302_2)">
<path d="M121.473 9.59996C116.673 1.74545 104.019 0.872724 85.6914 6.98179C78.7096 2.61817 70.4188 0 61.2552 0C34.6371 0 13.2553 21.3817 13.2553 47.9998C13.2553 49.7453 13.2553 51.4907 13.6917 53.2362C1.47355 66.7634 -2.89007 78.1088 1.90991 85.527C4.96445 90.3269 10.2008 92.0724 17.1826 92.0724C32.4553 92.0724 55.5824 82.4724 75.6551 69.3816C90.9278 59.7816 104.455 48.4362 112.746 37.5271C125.4 23.1272 124.528 14.3999 121.473 9.59996ZM9.32807 81.1633C7.58262 78.5452 9.32807 72.4361 16.3099 64.1452C18.928 71.127 22.8553 77.2361 28.0916 82.4724C18.0553 84.6542 11.0735 84.2179 9.32807 81.1633ZM106.637 32.2908C104.019 24.8726 100.091 18.3272 94.4187 13.0909C105.764 10.4727 112.31 11.3454 114.055 13.9636C115.8 16.5818 114.491 22.6908 106.637 32.2908Z" fill="#4DA8FF"/>
<path d="M42.9277 92.5093C48.6004 94.6911 54.7095 96.0002 61.2549 96.0002C86.5639 96.0002 107.073 76.3639 109.255 51.4912C100.964 59.3457 90.9276 67.2003 80.4549 74.182C67.364 82.0366 54.7095 88.582 42.9277 92.5093Z" fill="#006AFF"/>
<path d="M940.678 93C937.323 93 934.046 92.5709 930.847 91.7126C927.648 90.8544 925.151 89.7621 923.356 88.4357L923.59 91.9467H914.696L914.228 71.8167H921.835C922.069 74.1574 923.005 76.303 924.644 78.2536C926.282 80.2042 928.428 81.7646 931.081 82.935C933.733 84.0273 936.698 84.5735 939.975 84.5735C941.302 84.5735 942.55 84.3784 943.72 83.9883C944.969 83.5982 945.983 82.974 946.763 82.1158C947.622 81.1795 948.051 80.0481 948.051 78.7217C948.051 77.2393 947.505 76.0299 946.412 75.0936C945.398 74.1574 943.877 73.2601 941.848 72.4018C939.897 71.5436 937.44 70.5683 934.475 69.476C932.056 68.5397 929.598 67.5644 927.101 66.5501C924.683 65.5358 922.42 64.3264 920.313 62.922C918.285 61.4395 916.646 59.645 915.398 57.5384C914.15 55.3537 913.525 52.7009 913.525 49.58C913.525 47.3173 913.954 45.0936 914.813 42.909C915.671 40.6463 916.997 38.6177 918.792 36.8231C920.587 34.9506 922.849 33.4681 925.58 32.3758C928.389 31.2835 931.705 30.7373 935.528 30.7373C937.635 30.7373 940.014 31.0884 942.667 31.7906C945.398 32.4148 947.7 33.3901 949.572 34.7165V31.3225H958.467V52.0377H950.86C950.391 49.3069 949.416 46.9662 947.934 45.0156C946.529 43.065 944.696 41.5826 942.433 40.5683C940.17 39.4759 937.635 38.9298 934.826 38.9298C932.875 38.9298 931.081 39.3979 929.442 40.3342C927.882 41.2705 927.101 42.87 927.101 45.1326C927.101 46.9272 927.726 48.3706 928.974 49.4629C930.222 50.4772 931.939 51.3355 934.124 52.0377C936.308 52.7399 938.727 53.5592 941.38 54.4954C945.359 55.8218 948.87 57.3823 951.913 59.1769C955.034 60.9714 957.492 63.1561 959.286 65.7308C961.081 68.2276 961.978 71.3095 961.978 74.9766C961.978 79.0338 960.964 82.3888 958.935 85.0416C956.906 87.6944 954.254 89.684 950.977 91.0104C947.778 92.3368 944.345 93 940.678 93Z" fill="#E6F2FF"/>
<path d="M839.126 91.1275V83.5202C841.311 83.5202 842.871 83.091 843.807 82.2328C844.744 81.3745 845.329 80.1652 845.563 78.6047C845.875 76.9662 846.031 75.1326 846.031 73.104V53.4421C846.031 52.0377 846.07 50.4772 846.148 48.7607C846.226 46.9662 846.343 45.2107 846.499 43.4941C845.251 43.5722 843.768 43.6502 842.052 43.7282C840.413 43.7282 839.165 43.7672 838.307 43.8452V34.9506C841.896 34.9506 844.939 34.7555 847.435 34.3654C849.932 33.9753 851.883 33.5071 853.287 32.961C854.77 32.4148 855.784 31.9077 856.33 31.4395H862.065C862.221 32.4538 862.299 33.195 862.299 33.6632C862.299 34.1313 862.299 34.5995 862.299 35.0676C862.377 35.4577 862.533 36.1989 862.767 37.2913C864.327 36.0429 866.122 34.9506 868.151 34.0143C870.179 33 872.208 32.2197 874.236 31.6736C876.265 31.0494 878.06 30.7373 879.62 30.7373C886.798 30.7373 891.87 32.8049 894.835 36.9402C897.878 40.9974 899.399 47.5514 899.399 56.6021V72.2848C899.399 73.3771 899.36 74.9376 899.282 76.9662C899.204 78.9168 899.087 80.7893 898.931 82.5839C900.257 82.4278 901.662 82.3498 903.144 82.3498C904.627 82.2718 905.758 82.2328 906.538 82.2328V91.1275H875.875V83.5202C878.06 83.5202 879.62 83.091 880.556 82.2328C881.571 81.3745 882.195 80.1652 882.429 78.6047C882.741 76.9662 882.897 75.1326 882.897 73.104L882.78 56.485C882.78 51.4135 882.039 47.6684 880.556 45.2497C879.152 42.7529 876.733 41.5045 873.3 41.5045C871.35 41.5045 869.399 41.9337 867.448 42.7919C865.576 43.6502 863.976 44.6645 862.65 45.8348C862.65 46.9272 862.65 48.0585 862.65 49.2289C862.65 50.3212 862.65 51.4135 862.65 52.5059V72.2848C862.65 73.3771 862.611 74.9376 862.533 76.9662C862.455 78.9168 862.338 80.7893 862.182 82.5839C863.43 82.4278 864.796 82.3498 866.278 82.3498C867.839 82.2718 869.009 82.2328 869.789 82.2328V91.1275H839.126Z" fill="#E6F2FF"/>
<path d="M801.51 93C795.892 93 790.821 91.7907 786.295 89.3719C781.77 86.9532 778.181 83.5202 775.528 79.0728C772.953 74.5475 771.666 69.2419 771.666 63.1561C771.666 56.6801 772.992 51.0234 775.645 46.186C778.376 41.2705 781.965 37.4863 786.412 34.8335C790.938 32.1027 795.853 30.7373 801.159 30.7373C806.777 30.7373 811.809 31.9467 816.256 34.3654C820.704 36.7841 824.215 40.2562 826.79 44.7815C829.364 49.2289 830.652 54.5735 830.652 60.8154C830.652 67.3693 829.403 73.065 826.907 77.9025C824.41 82.7399 820.977 86.4851 816.608 89.1379C812.238 91.7126 807.206 93 801.51 93ZM801.978 84.6905C805.099 84.6125 807.44 83.5202 809 81.4135C810.639 79.3069 811.77 76.6541 812.394 73.4551C813.018 70.2562 813.33 67.0182 813.33 63.7412C813.33 60.8544 813.096 57.9285 812.628 54.9636C812.238 51.9987 811.575 49.3069 810.639 46.8882C809.702 44.4694 808.415 42.5188 806.777 41.0364C805.216 39.554 803.266 38.8517 800.925 38.9298C797.882 39.0078 795.463 40.1001 793.669 42.2068C791.952 44.3134 790.704 46.9662 789.923 50.1651C789.221 53.2861 788.87 56.5631 788.87 59.9961C788.87 63.9753 789.299 67.8765 790.158 71.6996C791.016 75.5228 792.381 78.6827 794.254 81.1795C796.204 83.5982 798.779 84.7686 801.978 84.6905Z" fill="#E6F2FF"/>
<path d="M712.018 91.1278V82.7014L738.936 47.2397C740.262 45.5232 741.51 44.0018 742.681 42.6754C743.851 41.349 744.592 40.5297 744.904 40.2176L729.105 40.4516C727.31 40.4516 725.828 41.1539 724.657 42.5583C723.565 43.8847 722.668 45.6403 721.966 47.8249C721.263 50.0096 720.717 52.4673 720.327 55.1981H713.071L714.709 32.6104H762.109V39.9836L736.01 75.4451C734.917 76.9276 733.825 78.2541 732.733 79.4244C731.64 80.5948 730.548 81.648 729.456 82.5843L745.958 83.0524C748.455 83.1304 750.405 82.5063 751.81 81.1799C753.292 79.8535 754.423 78.059 755.204 75.7963C755.984 73.4556 756.569 70.9199 756.959 68.189H764.215L762.46 91.1278H712.018Z" fill="#E6F2FF"/>
<path d="M674.431 83.5202C676.615 83.5202 678.176 83.0911 679.112 82.2328C680.048 81.3746 680.633 80.1652 680.868 78.6047C681.18 76.9662 681.336 75.1327 681.336 73.1041V53.6762C681.336 52.2718 681.375 50.6723 681.453 48.8778C681.531 47.0052 681.648 45.2107 681.804 43.4942C680.555 43.5722 679.073 43.6502 677.356 43.7282C675.718 43.7282 674.47 43.7673 673.611 43.8453V34.9506C677.2 34.9506 680.243 34.7555 682.74 34.3654C685.237 33.9753 687.187 33.5072 688.592 32.961C690.074 32.4148 691.089 31.9077 691.635 31.4395H697.955V72.2848C697.955 73.3771 697.916 74.9376 697.838 76.9662C697.76 78.9168 697.643 80.7894 697.486 82.5839C698.735 82.4279 700.1 82.3498 701.583 82.3498C703.143 82.2718 704.314 82.2328 705.094 82.2328V91.1275H674.431V83.5202ZM689.06 22.1938C686.407 22.1938 684.223 21.2575 682.506 19.3849C680.789 17.5124 679.931 15.2497 679.931 12.5969C679.931 9.94409 680.828 7.6814 682.623 5.80884C684.418 3.93628 686.524 3 688.943 3C691.44 3 693.507 3.93628 695.146 5.80884C696.862 7.6814 697.721 9.94409 697.721 12.5969C697.721 15.2497 696.94 17.5124 695.38 19.3849C693.819 21.2575 691.713 22.1938 689.06 22.1938Z" fill="#E6F2FF"/>
<path d="M618.199 83.5202C620.384 83.5202 621.944 83.091 622.881 82.2328C623.817 81.3745 624.402 80.1652 624.636 78.6047C624.948 76.9662 625.104 75.1326 625.104 73.104V53.4421C625.104 52.0377 625.143 50.4772 625.221 48.7607C625.299 46.9662 625.416 45.2107 625.572 43.4941C624.324 43.5722 622.842 43.6502 621.125 43.7282C619.487 43.7282 618.238 43.7672 617.38 43.8452V34.9506H622.061C625.104 34.9506 627.874 34.5605 630.371 33.7802C632.946 33 634.623 32.2197 635.403 31.4395H641.138C641.294 32.2197 641.411 33.7022 641.489 35.8869C641.567 37.9935 641.606 39.866 641.606 41.5045C643.713 38.9298 645.702 36.8621 647.575 35.3017C649.448 33.7412 651.281 32.6099 653.076 31.9077C654.948 31.1274 656.821 30.7373 658.693 30.7373C661.424 30.7373 663.804 31.5175 665.832 33.078C667.861 34.5605 668.875 37.0182 668.875 40.4512C668.875 41.6216 668.602 42.87 668.056 44.1964C667.51 45.4447 666.652 46.498 665.481 47.3563C664.311 48.2146 662.711 48.6437 660.683 48.6437C659.122 48.6437 657.523 48.1755 655.884 47.2393C654.246 46.303 653.31 44.5084 653.076 41.8556C651.515 41.8556 649.955 42.5188 648.394 43.8452C646.834 45.0936 645.429 46.6151 644.181 48.4096C643.011 50.1261 642.191 51.7256 641.723 53.2081V72.2848C641.723 73.3771 641.684 74.9376 641.606 76.9662C641.528 78.9168 641.411 80.7893 641.255 82.5839C642.503 82.4278 643.869 82.3498 645.351 82.3498C646.912 82.2718 648.082 82.2328 648.862 82.2328V91.1275H618.199V83.5202Z" fill="#E6F2FF"/>
<path d="M580.583 93C574.966 93 569.894 91.7907 565.369 89.3719C560.843 86.9532 557.254 83.5202 554.601 79.0728C552.027 74.5475 550.739 69.2419 550.739 63.1561C550.739 56.6801 552.066 51.0234 554.718 46.186C557.449 41.2705 561.038 37.4863 565.486 34.8335C570.011 32.1027 574.927 30.7373 580.232 30.7373C585.85 30.7373 590.882 31.9467 595.33 34.3654C599.777 36.7841 603.288 40.2562 605.863 44.7815C608.438 49.2289 609.725 54.5735 609.725 60.8154C609.725 67.3693 608.477 73.065 605.98 77.9025C603.483 82.7399 600.05 86.4851 595.681 89.1379C591.311 91.7126 586.279 93 580.583 93ZM581.051 84.6905C584.172 84.6125 586.513 83.5202 588.073 81.4135C589.712 79.3069 590.843 76.6541 591.467 73.4551C592.092 70.2562 592.404 67.0182 592.404 63.7412C592.404 60.8544 592.17 57.9285 591.702 54.9636C591.311 51.9987 590.648 49.3069 589.712 46.8882C588.776 44.4694 587.488 42.5188 585.85 41.0364C584.289 39.554 582.339 38.8517 579.998 38.9298C576.955 39.0078 574.536 40.1001 572.742 42.2068C571.025 44.3134 569.777 46.9662 568.997 50.1651C568.295 53.2861 567.943 56.5631 567.943 59.9961C567.943 63.9753 568.373 67.8765 569.231 71.6996C570.089 75.5228 571.454 78.6827 573.327 81.1795C575.278 83.5982 577.852 84.7686 581.051 84.6905Z" fill="#E6F2FF"/>
<path d="M461.644 91.1278V83.4034C463.438 83.3254 464.921 83.0913 466.091 82.7012C467.339 82.3111 468.276 81.4138 468.9 80.0094C469.602 78.605 469.953 76.3423 469.953 73.2214V28.3969C469.953 26.2903 469.992 24.2617 470.07 22.3111C470.226 20.3605 470.343 18.878 470.421 17.8637C469.173 17.9418 467.612 18.0198 465.74 18.0978C463.867 18.0978 462.502 18.1368 461.644 18.2148V9.20312H495.233V16.9275C493.516 17.0055 492.034 17.2395 490.785 17.6297C489.537 18.0198 488.562 18.917 487.859 20.3215C487.235 21.6479 486.923 23.9105 486.923 27.1095V45.367H519.108V28.3969C519.108 26.2903 519.147 24.2617 519.225 22.3111C519.303 20.3605 519.42 18.878 519.576 17.8637C518.328 17.9418 516.767 18.0198 514.895 18.0978C513.022 18.0978 511.657 18.1368 510.798 18.2148V9.20312H544.387V16.9275C542.671 17.0055 541.188 17.2395 539.94 17.6297C538.692 18.0198 537.716 18.917 537.014 20.3215C536.39 21.6479 536.078 23.9105 536.078 27.1095V71.934C536.078 74.0406 536.039 76.0692 535.961 78.0198C535.883 79.9704 535.766 81.4528 535.61 82.4671C536.858 82.3111 538.419 82.2331 540.291 82.2331C542.242 82.1551 543.607 82.116 544.387 82.116V91.1278H510.798V83.4034C512.593 83.3254 514.075 83.0913 515.246 82.7012C516.494 82.3111 517.43 81.4138 518.054 80.0094C518.757 78.605 519.108 76.3423 519.108 73.2214V54.2617L486.923 54.6128V71.934C486.923 74.0406 486.884 76.0692 486.806 78.0198C486.728 79.9704 486.611 81.4528 486.455 82.4671C487.703 82.3111 489.264 82.2331 491.136 82.2331C493.087 82.1551 494.452 82.116 495.233 82.116V91.1278H461.644Z" fill="#E6F2FF"/>
<path d="M352.773 91.4789L338.611 50.8678C337.909 48.8392 337.363 47.3178 336.973 46.3035C336.661 45.2892 336.427 44.4308 336.271 43.7286C336.115 43.0264 335.92 42.2072 335.685 41.2709L331.121 41.505V32.6104H359.21V40.1006C356.791 40.1786 355.386 41.1149 354.996 42.9094C354.606 44.704 354.723 46.8106 355.347 49.2293L359.327 63.5075C359.795 65.2241 360.224 67.0577 360.614 69.0083C361.082 70.8809 361.472 72.7533 361.784 74.6259C362.174 72.9874 362.565 71.1929 362.955 69.2424C363.423 67.2918 364.086 64.8729 364.944 61.9861L373.488 32.6104H386.245L395.607 64.9121C396.076 66.5506 396.544 68.3451 397.012 70.2957C397.558 72.1682 398.026 73.8847 398.416 75.4451C398.728 73.8847 399.158 72.1682 399.704 70.2957C400.25 68.4231 400.757 66.7455 401.225 65.2631L405.79 50.3997C406.414 48.2931 406.96 46.5764 407.428 45.25C407.896 43.8456 408.481 42.4412 409.184 41.0368L402.513 41.505V32.6104H424.749V40.1006C423.189 40.1006 421.823 40.6078 420.653 41.6221C419.483 42.6364 418.429 43.8846 417.493 45.3671C416.635 46.7715 415.933 48.1759 415.386 49.5803C414.84 50.9067 414.45 51.9601 414.216 52.7403L400.874 91.4789H388.468L380.393 66.5504C380.159 65.6922 379.769 64.4439 379.223 62.8054C378.754 61.1669 378.247 59.4113 377.701 57.5387C377.233 55.5882 376.765 53.7937 376.297 52.1552C375.907 54.3399 375.321 56.8366 374.541 59.6455C373.761 62.4543 373.02 65.029 372.317 67.3697C371.615 69.7104 371.108 71.3099 370.796 72.1681L364.359 91.4789H352.773Z" fill="#E6F2FF"/>
<path d="M299.746 93C294.05 93 289.017 91.7516 284.648 89.2549C280.279 86.6801 276.885 83.091 274.466 78.4877C272.047 73.8062 270.838 68.3056 270.838 61.9857C270.838 56.5241 272.047 51.4135 274.466 46.6541C276.885 41.8947 280.279 38.0715 284.648 35.1846C289.095 32.2198 294.245 30.7373 300.097 30.7373C303.374 30.7373 306.573 31.2054 309.694 32.1417C312.815 33 315.623 34.5214 318.12 36.7061C320.695 38.8908 322.723 41.8557 324.206 45.6008C325.766 49.3459 326.508 54.0273 326.43 59.645L288.042 60.3472C288.042 64.5605 288.549 68.3446 289.564 71.6996C290.656 75.0546 292.411 77.7074 294.83 79.658C297.249 81.6086 300.487 82.5839 304.544 82.5839C306.104 82.5839 307.86 82.3108 309.811 81.7646C311.839 81.2185 313.868 80.3212 315.896 79.0728C318.003 77.7464 319.954 75.9909 321.748 73.8063L327.015 78.7217C324.206 82.7009 321.202 85.7438 318.003 87.8505C314.804 89.8791 311.605 91.2445 308.406 91.9467C305.285 92.6489 302.398 93 299.746 93ZM288.744 52.1547H310.279C310.201 48.8778 309.733 46.303 308.874 44.4304C308.094 42.4798 307.002 41.0754 305.597 40.2172C304.193 39.3589 302.554 38.9298 300.682 38.9298C297.249 38.9298 294.557 40.1781 292.606 42.6749C290.656 45.0936 289.368 48.2536 288.744 52.1547Z" fill="#E6F2FF"/>
<path d="M247.891 92.2981L210.44 44.4307C209.426 43.1043 208.372 41.6999 207.28 40.2175C206.188 38.735 205.095 37.2135 204.003 35.6531H203.886L204.12 71.934C204.12 74.0406 204.081 76.0692 204.003 78.0198C203.925 79.9704 203.808 81.4528 203.652 82.4671C204.9 82.3111 206.461 82.2331 208.333 82.2331C210.284 82.1551 211.649 82.116 212.43 82.116V91.1278H185.746V83.4034C187.54 83.3254 189.023 83.0913 190.193 82.7012C191.441 82.3111 192.378 81.4138 193.002 80.0094C193.704 78.605 194.055 76.3423 194.055 73.2214L193.821 28.3969C193.821 26.2903 193.86 24.2617 193.938 22.3111C194.016 20.3605 194.133 18.878 194.289 17.8637C193.041 17.9418 191.441 18.0198 189.491 18.0978C187.618 18.0978 186.253 18.1368 185.395 18.2148V9.20312H203.769L239.582 54.3787C241.532 56.8755 243.132 59.0211 244.38 60.8156C245.707 62.6102 246.838 64.1707 247.774 65.497H247.891V28.3969C247.891 26.2903 247.93 24.2617 248.008 22.3111C248.086 20.3605 248.164 18.878 248.242 17.8637C246.994 17.9418 245.434 18.0198 243.561 18.0978C241.688 18.0978 240.323 18.1368 239.465 18.2148V9.20312H266.149V16.9275C264.432 17.0055 262.95 17.2395 261.701 17.6297C260.453 18.0198 259.478 18.917 258.776 20.3215C258.151 21.6479 257.839 23.9105 257.839 27.1095V92.2981H247.891Z" fill="#E6F2FF"/>
</g>
<defs>
<clipPath id="clip0_1302_2">
<rect width="962" height="96" fill="white"/>
</clipPath>
</defs>
</svg>

<svg xmlns="http://www.w3.org/2000/svg" width="962" height="96" fill="none" viewBox="0 0 962 96"><g clip-path="url(#a)"><path fill="#4da8ff" d="M121.473 9.6c-4.8-7.855-17.454-8.727-35.782-2.618C78.71 2.618 70.42 0 61.255 0c-26.618 0-48 21.382-48 48 0 1.745 0 3.49.437 5.236C1.474 66.763-2.89 78.11 1.91 85.527c3.054 4.8 8.29 6.545 15.273 6.545 15.272 0 38.4-9.6 58.472-22.69 15.273-9.6 28.8-20.946 37.091-31.855C125.4 23.127 124.528 14.4 121.473 9.6M9.328 81.163c-1.745-2.618 0-8.727 6.982-17.018q3.927 10.473 11.782 18.327c-10.037 2.182-17.018 1.746-18.764-1.309m97.309-48.872c-2.618-7.418-6.546-13.964-12.218-19.2 11.345-2.618 17.891-1.746 19.636.873s.436 8.727-7.418 18.327"/><path fill="#006aff" d="M42.928 92.51C48.6 94.69 54.71 96 61.255 96c25.309 0 45.818-19.636 48-44.509-8.291 7.855-18.327 15.71-28.8 22.691-13.091 7.855-25.745 14.4-37.527 18.327"/><path fill="#e6f2ff" d="M940.678 93q-5.032 0-9.831-1.287-4.798-1.288-7.491-3.277l.234 3.51h-8.894l-.468-20.13h7.607q.35 3.511 2.809 6.438 2.457 2.925 6.437 4.681 3.978 1.638 8.894 1.638 1.99 0 3.745-.585 1.873-.585 3.043-1.872 1.288-1.404 1.288-3.394 0-2.224-1.639-3.628-1.52-1.405-4.564-2.692-2.926-1.287-7.373-2.926a480 480 0 0 1-7.374-2.926 40.3 40.3 0 0 1-6.788-3.628q-3.043-2.223-4.915-5.384-1.873-3.276-1.873-7.958 0-3.394 1.288-6.671 1.287-3.394 3.979-6.086 2.692-2.808 6.788-4.447 4.213-1.639 9.948-1.639 3.16 0 7.139 1.054 4.097.936 6.905 2.926v-3.394h8.895v20.715h-7.607q-.703-4.097-2.926-7.022-2.107-2.926-5.501-4.448-3.394-1.638-7.607-1.638-2.926 0-5.384 1.404-2.34 1.404-2.341 4.799 0 2.691 1.873 4.33 1.872 1.522 5.15 2.575 3.276 1.053 7.256 2.457 5.969 1.99 10.533 4.682 4.682 2.692 7.373 6.554 2.692 3.746 2.692 9.246 0 6.086-3.043 10.065t-7.958 5.968Q946.179 93 940.678 93M839.126 91.128V83.52q3.277 0 4.681-1.287 1.405-1.288 1.756-3.628.468-2.458.468-5.501V53.442q0-2.106.117-4.681.117-2.692.351-5.267a266 266 0 0 1-4.447.234q-2.458 0-3.745.117v-8.894q5.384 0 9.128-.586 3.746-.585 5.852-1.404 2.224-.819 3.043-1.521h5.735q.234 1.521.234 2.223v1.405q.117.584.468 2.223 2.34-1.872 5.384-3.277a32.5 32.5 0 0 1 6.085-2.34q3.044-.937 5.384-.937 10.767 0 15.215 6.203 4.564 6.086 4.564 19.662v15.683q0 1.639-.117 4.681-.117 2.925-.351 5.618a36 36 0 0 1 4.213-.234q2.224-.117 3.394-.117v8.894h-30.663V83.52q3.277 0 4.681-1.287 1.522-1.288 1.873-3.628.468-2.458.468-5.501l-.117-16.619q0-7.607-2.224-11.235-2.106-3.745-7.256-3.745-2.925 0-5.852 1.287-2.808 1.287-4.798 3.043v26.45q0 1.639-.117 4.681-.117 2.925-.351 5.618a33 33 0 0 1 4.096-.234q2.341-.117 3.511-.117v8.894zM801.51 93q-8.427 0-15.215-3.628t-10.767-10.3q-3.862-6.787-3.862-15.916 0-9.714 3.979-16.97 4.096-7.374 10.767-11.352 6.788-4.097 14.747-4.097 8.427 0 15.097 3.628 6.672 3.629 10.534 10.417 3.861 6.671 3.862 16.033 0 9.831-3.745 17.088-3.745 7.255-10.299 11.235Q810.053 93 801.51 93m.468-8.31q4.682-.117 7.022-3.276 2.458-3.16 3.394-7.959t.936-9.714q0-4.33-.702-8.777-.585-4.448-1.989-8.076t-3.862-5.852q-2.341-2.223-5.852-2.106-4.565.117-7.256 3.277-2.575 3.16-3.746 7.958-1.053 4.682-1.053 9.831 0 5.969 1.288 11.704 1.287 5.734 4.096 9.48 2.925 3.628 7.724 3.51M712.018 91.128V82.7l26.918-35.461a91 91 0 0 1 3.745-4.565q1.755-1.989 2.223-2.457l-15.799.234q-2.692 0-4.448 2.106-1.638 1.99-2.691 5.267-1.054 3.277-1.639 7.373h-7.256l1.638-22.588h47.4v7.374L736.01 75.445a45 45 0 0 1-3.277 3.98 41 41 0 0 1-3.277 3.16l16.502.467q3.745.117 5.852-1.872 2.223-1.99 3.394-5.384 1.17-3.51 1.755-7.607h7.256l-1.755 22.939zM674.431 83.52q3.276 0 4.681-1.287 1.404-1.288 1.756-3.628.468-2.458.468-5.5V53.675q0-2.106.117-4.798.117-2.809.351-5.384-1.873.117-4.448.234-2.457 0-3.745.117v-8.894q5.384 0 9.129-.586 3.745-.585 5.852-1.404 2.223-.819 3.043-1.521h6.32v40.845q0 1.639-.117 4.681-.117 2.925-.352 5.618a33 33 0 0 1 4.097-.234q2.34-.117 3.511-.117v8.894h-30.663zm14.629-61.326q-3.979 0-6.554-2.81-2.575-2.808-2.575-6.787t2.692-6.788q2.692-2.81 6.32-2.809 3.745 0 6.203 2.809 2.574 2.808 2.575 6.788 0 3.979-2.341 6.788-2.341 2.808-6.32 2.809M618.199 83.52q3.277 0 4.682-1.287 1.404-1.288 1.755-3.628.468-2.458.468-5.501V53.442q0-2.106.117-4.681.117-2.692.351-5.267-1.872.117-4.447.234-2.457 0-3.745.117v-8.894h4.681q4.565 0 8.31-1.17 3.862-1.171 5.032-2.341h5.735q.234 1.17.351 4.447.117 3.16.117 5.618 3.16-3.863 5.969-6.203t5.501-3.394q2.809-1.17 5.617-1.17 4.097 0 7.139 2.34 3.043 2.223 3.043 7.373 0 1.755-.819 3.745-.819 1.873-2.575 3.16-1.755 1.288-4.798 1.288-2.341 0-4.799-1.405-2.457-1.404-2.808-5.383-2.341 0-4.682 1.99-2.34 1.872-4.213 4.564-1.755 2.575-2.458 4.798v19.077q0 1.639-.117 4.681-.117 2.925-.351 5.618a33 33 0 0 1 4.096-.234q2.341-.117 3.511-.117v8.894h-30.663zM580.583 93q-8.426 0-15.214-3.628t-10.768-10.3q-3.861-6.787-3.862-15.916 0-9.714 3.979-16.97 4.096-7.374 10.768-11.352 6.788-4.097 14.746-4.097 8.427 0 15.098 3.628 6.67 3.629 10.533 10.417 3.862 6.671 3.862 16.033 0 9.831-3.745 17.088-3.745 7.255-10.299 11.235Q589.126 93 580.583 93m.468-8.31q4.682-.117 7.022-3.276 2.458-3.16 3.394-7.959a50.5 50.5 0 0 0 .937-9.714q0-4.33-.702-8.777-.586-4.448-1.99-8.076t-3.862-5.852q-2.341-2.223-5.852-2.106-4.565.117-7.256 3.277-2.575 3.16-3.745 7.958-1.053 4.682-1.054 9.831 0 5.969 1.288 11.704 1.287 5.734 4.096 9.48 2.926 3.628 7.724 3.51M461.644 91.128v-7.725q2.691-.117 4.447-.702 1.872-.585 2.809-2.692 1.053-2.106 1.053-6.788V28.397q0-3.16.117-6.086.234-2.926.351-4.447-1.873.117-4.681.234-2.81 0-4.096.117V9.203h33.589v7.724q-2.575.118-4.448.703-1.872.585-2.926 2.692-.936 1.99-.936 6.788v18.257h32.185v-16.97q0-3.16.117-6.086t.351-4.447q-1.872.117-4.681.234-2.809 0-4.097.117V9.203h33.589v7.724q-2.574.118-4.447.703t-2.926 2.692q-.936 1.99-.936 6.788v44.824q0 3.16-.117 6.086-.117 2.925-.351 4.447 1.872-.234 4.681-.234 2.926-.117 4.096-.117v9.012h-33.589v-7.725q2.692-.117 4.448-.702 1.872-.585 2.808-2.692 1.054-2.106 1.054-6.788v-18.96l-32.185.352v17.321q0 3.16-.117 6.086-.117 2.925-.351 4.447 1.873-.234 4.681-.234 2.926-.117 4.097-.117v9.012zM352.773 91.479l-14.162-40.611a156 156 0 0 0-1.638-4.565 34 34 0 0 1-.702-2.574 94 94 0 0 0-.586-2.458l-4.564.234V32.61h28.089v7.49q-3.629.118-4.214 2.81-.585 2.69.351 6.32l3.98 14.278q.702 2.575 1.287 5.5a72 72 0 0 1 1.17 5.618q.586-2.458 1.171-5.384.702-2.926 1.989-7.256l8.544-29.376h12.757l9.362 32.302q.703 2.458 1.405 5.384a139 139 0 0 1 1.404 5.15q.469-2.342 1.288-5.15t1.521-5.033L405.79 50.4q.936-3.16 1.638-5.15a32 32 0 0 1 1.756-4.213l-6.671.468V32.61h22.236v7.49q-2.34 0-4.096 1.522-1.755 1.522-3.16 3.745a26.6 26.6 0 0 0-2.107 4.213q-.819 1.99-1.17 3.16L400.874 91.48h-12.406l-8.075-24.929q-.351-1.287-1.17-3.745-.703-2.457-1.522-5.266-.702-2.925-1.404-5.384-.586 3.278-1.756 7.49a387 387 0 0 1-2.224 7.725q-1.053 3.51-1.521 4.798l-6.437 19.31zM299.746 93q-8.544 0-15.098-3.745-6.553-3.862-10.182-10.767-3.628-7.023-3.628-16.502 0-8.193 3.628-15.332t10.182-11.47q6.67-4.446 15.449-4.447 4.915 0 9.597 1.405 4.681 1.287 8.426 4.564 3.862 3.278 6.086 8.895 2.34 5.617 2.224 14.044l-38.388.702q0 6.32 1.522 11.353 1.638 5.032 5.266 7.958 3.628 2.925 9.714 2.926 2.34 0 5.267-.82 3.043-.818 6.085-2.691 3.16-1.99 5.852-5.267l5.267 4.916q-4.213 5.969-9.012 9.129-4.799 3.042-9.597 4.096Q303.724 93 299.746 93m-11.002-40.845h21.535q-.117-4.916-1.405-7.725-1.17-2.925-3.277-4.213-2.106-1.287-4.915-1.287-5.15 0-8.076 3.745-2.925 3.629-3.862 9.48M247.891 92.298 210.44 44.431a296 296 0 0 1-3.16-4.213 232 232 0 0 1-3.277-4.565h-.117l.234 36.281q0 3.16-.117 6.086-.117 2.925-.351 4.447 1.873-.234 4.681-.234 2.926-.117 4.097-.117v9.012h-26.684v-7.725q2.692-.117 4.447-.702 1.872-.585 2.809-2.692 1.053-2.106 1.053-6.788l-.234-44.824q0-3.16.117-6.086t.351-4.447q-1.873.117-4.798.234-2.81 0-4.096.117V9.203h18.374l35.813 45.176q2.925 3.745 4.798 6.437a266 266 0 0 1 3.394 4.681h.117v-37.1q0-3.16.117-6.086t.234-4.447q-1.872.117-4.681.234-2.81 0-4.096.117V9.203h26.684v7.724q-2.575.118-4.448.703-1.872.585-2.925 2.692-.937 1.99-.937 6.788v65.188z"/></g><defs><clipPath id="a"><path fill="#fff" d="M0 0h962v96H0z"/></clipPath></defs></svg>
